IO-Logo-BW.svg

<?xml version="1.0" encoding="UTF-8" standalone="no"?>
<!-- Created with Inkscape (http://www.inkscape.org/) -->

<svg
   width="198.78499mm"
   height="115.10806mm"
   viewBox="0 0 198.78499 115.10806"
   version="1.1"
   id="svg1"
   sodipodi:docname="IO-Logo-BW.svg"
   inkscape:version="1.4 (86a8ad7, 2024-10-11)"
   xmlns:inkscape="http://www.inkscape.org/namespaces/inkscape"
   xmlns:sodipodi="http://sodipodi.sourceforge.net/DTD/sodipodi-0.dtd"
   xmlns:xlink="http://www.w3.org/1999/xlink"
   xmlns="http://www.w3.org/2000/svg"
   xmlns:svg="http://www.w3.org/2000/svg">
  <sodipodi:namedview
     id="namedview1"
     pagecolor="#ffffff"
     bordercolor="#000000"
     borderopacity="0.25"
     inkscape:showpageshadow="2"
     inkscape:pageopacity="0.0"
     inkscape:pagecheckerboard="0"
     inkscape:deskcolor="#d1d1d1"
     inkscape:document-units="mm"
     inkscape:zoom="1.4142136"
     inkscape:cx="385.01963"
     inkscape:cy="207.53583"
     inkscape:window-width="1920"
     inkscape:window-height="991"
     inkscape:window-x="-9"
     inkscape:window-y="-9"
     inkscape:window-maximized="1"
     inkscape:current-layer="layer1" />
  <defs
     id="defs1">
    <linearGradient
       id="swatch2"
       inkscape:swatch="solid">
      <stop
         style="stop-color:#000000;stop-opacity:1;"
         offset="0"
         id="stop2" />
    </linearGradient>
    <linearGradient
       id="swatch1"
       inkscape:swatch="solid">
      <stop
         style="stop-color:#000000;stop-opacity:1;"
         offset="0"
         id="stop1" />
    </linearGradient>
  </defs>
  <g
     inkscape:label="Layer 1"
     inkscape:groupmode="layer"
     id="layer1"
     transform="translate(-322.38508,-344.41039)">
    <path
       id="path17"
       style="fill:none;stroke:#f8f8f8;stroke-width:0;stroke-dasharray:none;stroke-opacity:1"
       d="m 421.0765,348.2143 a 52.721315,71.430266 89.961796 0 0 -71.64604,52.58332 52.721315,71.430266 89.961796 0 0 71.21381,52.85898 52.721315,71.430266 89.961796 0 0 71.64604,-52.58332 52.721315,71.430266 89.961796 0 0 -71.21381,-52.85898 z" />
    <path
       id="path1"
       style="fill:none;stroke:#fbfbfb;stroke-width:0.507475;stroke-opacity:1"
       d="m 412.81174,440.46545 c -30.40591,-3.20681 -51.45128,-23.58865 -47.00613,-45.52409 4.44512,-21.93545 32.69749,-37.11802 63.10339,-33.91121 30.40593,3.20681 51.4513,23.58865 47.00615,45.5241 -4.44512,21.93545 -32.6975,37.11801 -63.10341,33.9112 z"
       sodipodi:nodetypes="sssss" />
    <text
       xml:space="preserve"
       style="font-style:normal;font-variant:normal;font-weight:normal;font-stretch:normal;font-size:14.9958px;line-height:0;font-family:sans-serif;-inkscape-font-specification:'sans-serif, Normal';font-variant-ligatures:normal;font-variant-caps:normal;font-variant-numeric:normal;font-variant-east-asian:normal;text-align:center;letter-spacing:0.937236px;writing-mode:lr-tb;direction:ltr;text-anchor:middle;fill:#000000;stroke:#000000;stroke-width:0.499859"
       id="text1"><textPath
         xlink:href="#path1"
         startOffset="50%"
         id="textPath17"><tspan
           style="font-style:normal;font-variant:normal;font-weight:normal;font-stretch:normal;font-size:14.9958px;line-height:0;font-family:sans-serif;-inkscape-font-specification:'sans-serif, Normal';font-variant-ligatures:normal;font-variant-caps:normal;font-variant-numeric:normal;font-variant-east-asian:normal;text-align:center;letter-spacing:0.937236px;text-anchor:middle;stroke-width:0.499859"
           id="tspan14">SoLoio </tspan><tspan
           style="font-style:normal;font-variant:normal;font-weight:normal;font-stretch:normal;font-size:14.9958px;line-height:0;font-family:sans-serif;-inkscape-font-specification:'sans-serif, Normal';font-variant-ligatures:normal;font-variant-caps:normal;font-variant-numeric:normal;font-variant-east-asian:normal;text-align:center;letter-spacing:0.937236px;text-anchor:middle;stroke-width:0.499859"
           id="tspan2" /></textPath></text>
    <text
       xml:space="preserve"
       style="font-style:normal;font-variant:normal;font-weight:normal;font-stretch:normal;font-size:14.9958px;line-height:0;font-family:sans-serif;-inkscape-font-specification:'sans-serif, Normal';font-variant-ligatures:normal;font-variant-caps:normal;font-variant-numeric:normal;font-variant-east-asian:normal;text-align:center;letter-spacing:1.5875px;writing-mode:lr-tb;direction:ltr;text-anchor:middle;fill:#000000;stroke:#000000;stroke-width:0.499859"
       id="text16"
       transform="matrix(1,0,0,0.99999862,-1.1213804e-6,5.9779461e-4)"><textPath
         xlink:href="#path17"
         startOffset="50%"
         id="textPath18"><tspan
           style="font-style:normal;font-variant:normal;font-weight:normal;font-stretch:normal;font-size:14.9958px;line-height:0;font-family:sans-serif;-inkscape-font-specification:'sans-serif, Normal';font-variant-ligatures:normal;font-variant-caps:normal;font-variant-numeric:normal;font-variant-east-asian:normal;text-align:center;letter-spacing:1.5875px;text-anchor:middle;stroke-width:0.499859"
           id="tspan16">Technical Solutions</tspan></textPath></text>
    <path
       id="path27"
       style="fill:none;stroke:#141414;stroke-width:3;stroke-dasharray:none;stroke-opacity:1"
       d="m 341.45257,383.92958 a 85.052773,56.054031 0 0 1 80.53034,-38.01919 85.052773,56.054031 0 0 1 80.54834,38.05412" />
    <path
       id="path30"
       style="fill:none;stroke:#141414;stroke-width:3;stroke-dasharray:none;stroke-opacity:1"
       d="m 506.44634,408.55173 a 85.052773,56.054031 0 0 1 -84.46343,49.46672 85.052773,56.054031 0 0 1 -84.46343,-49.46672" />
    <ellipse
       style="fill:none;stroke:#141414;stroke-width:3;stroke-dasharray:none;stroke-opacity:1"
       id="ellipse18"
       cx="422.18228"
       cy="401.87088"
       rx="56.627563"
       ry="37.625801" />
    <path
       id="path24"
       style="fill:none;stroke:#141414;stroke-width:3;stroke-linecap:round;stroke-dasharray:none;stroke-opacity:1"
       d="m 478.60282,369.6801 a 73.546822,45.670612 0 0 1 14.49485,14.287" />
    <path
       id="path21"
       style="fill:none;stroke:#141414;stroke-width:3;stroke-linecap:round;stroke-dasharray:none;stroke-opacity:1"
       d="m 356.29355,383.96733 a 73.546822,45.670612 0 0 1 14.56233,-14.33222" />
    <path
       id="rect22"
       style="opacity:0.226744;fill:none;stroke:#141414;stroke-width:3;stroke-linecap:round"
       d="M 366.56765,408.54821 H 324.8839 l 6.5481,-12.28999 -6.5481,-12.29 v 0 l 47.58159,-10e-6" />
    <path
       id="path23"
       style="opacity:1;fill:none;stroke:#141414;stroke-width:3;stroke-linecap:round"
       d="m 471.97572,383.96822 h 46.54496 c 0,0 -6.93681,11.56044 -6.5481,12.29 l 6.5481,12.28999 -40.72415,-10e-6" />
    <path
       id="path25"
       style="opacity:0.226744;fill:none;stroke:#141414;stroke-width:3;stroke-linecap:round"
       d="M 366.56765,408.54821 H 324.8839 l 6.5481,-12.28999 -6.5481,-12.29 v 0 l 47.58159,-10e-6" />
    <path
       id="path28"
       style="opacity:1;fill:none;stroke:#000000;stroke-width:3;stroke-linecap:round;stroke-opacity:0"
       d="m 471.97572,383.96822 h 46.54496 c 0,0 -6.93681,11.56044 -6.5481,12.29 l 6.5481,12.28999 -40.72415,-10e-6" />
    <path
       id="path29"
       style="opacity:0;fill:#000000;fill-opacity:1;stroke:#000000;stroke-width:3;stroke-linecap:round;stroke-opacity:1"
       d="m 471.97572,383.96822 h 46.54496 c 0,0 -6.93681,11.56044 -6.5481,12.29 l 6.5481,12.28999 -40.72415,-10e-6" />
    <path
       id="path32"
       style="opacity:1;fill:none;stroke:#141414;stroke-width:3;stroke-linecap:round"
       d="M 366.56765,408.54821 H 324.8839 l 6.5481,-12.28999 -6.5481,-12.29 v 0 l 47.58159,-10e-6" />
    <text
       xml:space="preserve"
       style="font-style:normal;font-variant:normal;font-weight:normal;font-stretch:normal;font-size:12.7px;line-height:0;font-family:sans-serif;-inkscape-font-specification:'sans-serif, Normal';font-variant-ligatures:normal;font-variant-caps:normal;font-variant-numeric:normal;font-variant-east-asian:normal;text-align:center;letter-spacing:1.5875px;writing-mode:lr-tb;direction:ltr;text-anchor:middle;opacity:0.226744;fill:#ffffff;stroke:#141414;stroke-width:3;stroke-linecap:round;stroke-dasharray:none;stroke-opacity:1"
       x="499.52673"
       y="350.04291"
       id="text34"><tspan
         sodipodi:role="line"
         id="tspan34"
         style="stroke-width:3"
         x="499.52673"
         y="350.04291" /></text>
    <path
       id="text52"
       style="font-size:60.8778px;line-height:0;-inkscape-font-specification:'sans-serif, Normal';text-align:center;letter-spacing:7.60972px;text-anchor:middle;opacity:1;fill:#000000;stroke:#141414;stroke-width:2.00001;stroke-linecap:round"
       transform="scale(0.94996711,1.052668)"
       d="m 428.55562,404.48117 h -17.47859 v -4.51827 h 5.79647 v -35.22471 h -5.79647 v -4.51827 h 17.47859 v 4.51827 h -5.79647 v 35.22471 h 5.79647 z m 50.6225,-39.17819 q 2.70502,2.97255 4.13184,7.28274 1.45655,4.3102 1.45655,9.77969 0,5.46949 -1.48627,9.80941 -1.45655,4.31019 -4.10212,7.19357 -2.73475,3.00227 -6.48016,4.51827 -3.71568,1.516 -8.50149,1.516 -4.6669,0 -8.50149,-1.54572 -3.80486,-1.54573 -6.48015,-4.48855 -2.6753,-2.94283 -4.13185,-7.2233 -1.42682,-4.28047 -1.42682,-9.77968 0,-5.41004 1.42682,-9.69051 1.42683,-4.3102 4.16157,-7.37192 2.61585,-2.9131 6.48016,-4.45883 3.89404,-1.54572 8.47176,-1.54572 4.75608,0 8.53122,1.57545 3.80486,1.54572 6.45043,4.4291 z m -0.53506,17.06243 q 0,-8.62039 -3.86431,-13.2873 -3.86432,-4.69662 -10.55255,-4.69662 -6.74769,0 -10.612,4.69662 -3.83459,4.66691 -3.83459,13.2873 0,8.70957 3.92377,13.34674 3.92376,4.60745 10.52282,4.60745 6.59906,0 10.4931,-4.60745 3.92376,-4.63717 3.92376,-13.34674 z" />
  </g>
</svg>

<?xml version="1.0" encoding="UTF-8" standalone="no"?>
<!-- Created with Inkscape (http://www.inkscape.org/) -->

<svg
   width="800mm"
   height="800mm"
   viewBox="0 0 800 800"
   version="1.1"
   id="svg1"
   sodipodi:docname="IO-Logo-BW.svg"
   inkscape:version="1.4 (86a8ad7, 2024-10-11)"
   xmlns:inkscape="http://www.inkscape.org/namespaces/inkscape"
   xmlns:sodipodi="http://sodipodi.sourceforge.net/DTD/sodipodi-0.dtd"
   xmlns:xlink="http://www.w3.org/1999/xlink"
   xmlns="http://www.w3.org/2000/svg"
   xmlns:svg="http://www.w3.org/2000/svg">
  <sodipodi:namedview
     id="namedview1"
     pagecolor="#ffffff"
     bordercolor="#000000"
     borderopacity="0.25"
     inkscape:showpageshadow="2"
     inkscape:pageopacity="0.0"
     inkscape:pagecheckerboard="0"
     inkscape:deskcolor="#d1d1d1"
     inkscape:document-units="mm"
     inkscape:zoom="1.4142136"
     inkscape:cx="1603.3646"
     inkscape:cy="1509.3194"
     inkscape:window-width="1920"
     inkscape:window-height="991"
     inkscape:window-x="-9"
     inkscape:window-y="-9"
     inkscape:window-maximized="1"
     inkscape:current-layer="layer1" />
  <defs
     id="defs1">
    <linearGradient
       id="swatch2"
       inkscape:swatch="solid">
      <stop
         style="stop-color:#000000;stop-opacity:1;"
         offset="0"
         id="stop2" />
    </linearGradient>
    <linearGradient
       id="swatch1"
       inkscape:swatch="solid">
      <stop
         style="stop-color:#000000;stop-opacity:1;"
         offset="0"
         id="stop1" />
    </linearGradient>
  </defs>
  <g
     inkscape:label="Layer 1"
     inkscape:groupmode="layer"
     id="layer1">
    <path
       id="path17"
       style="fill:none;stroke:#f8f8f8;stroke-width:0;stroke-opacity:1;stroke-dasharray:none"
       d="m 421.0765,348.2143 a 52.721315,71.430266 89.961796 0 0 -71.64604,52.58332 52.721315,71.430266 89.961796 0 0 71.21381,52.85898 52.721315,71.430266 89.961796 0 0 71.64604,-52.58332 52.721315,71.430266 89.961796 0 0 -71.21381,-52.85898 z" />
    <path
       id="path1"
       style="fill:none;stroke:#fbfbfb;stroke-width:0.507475;stroke-opacity:1"
       d="m 412.81174,440.46545 c -30.40591,-3.20681 -51.45128,-23.58865 -47.00613,-45.52409 4.44512,-21.93545 32.69749,-37.11802 63.10339,-33.91121 30.40593,3.20681 51.4513,23.58865 47.00615,45.5241 -4.44512,21.93545 -32.6975,37.11801 -63.10341,33.9112 z"
       sodipodi:nodetypes="sssss" />
    <text
       xml:space="preserve"
       style="font-style:normal;font-variant:normal;font-weight:normal;font-stretch:normal;font-size:14.9958px;line-height:0;font-family:sans-serif;-inkscape-font-specification:'sans-serif, Normal';font-variant-ligatures:normal;font-variant-caps:normal;font-variant-numeric:normal;font-variant-east-asian:normal;text-align:center;letter-spacing:0.937236px;writing-mode:lr-tb;direction:ltr;text-anchor:middle;fill:#000000;stroke:#000000;stroke-width:0.499859"
       id="text1"><textPath
         xlink:href="#path1"
         startOffset="50%"
         id="textPath17"><tspan
           style="font-style:normal;font-variant:normal;font-weight:normal;font-stretch:normal;font-size:14.9958px;line-height:0;font-family:sans-serif;-inkscape-font-specification:'sans-serif, Normal';font-variant-ligatures:normal;font-variant-caps:normal;font-variant-numeric:normal;font-variant-east-asian:normal;text-align:center;letter-spacing:0.937236px;text-anchor:middle;stroke-width:0.499859"
           id="tspan14">SoLoio </tspan><tspan
           style="font-style:normal;font-variant:normal;font-weight:normal;font-stretch:normal;font-size:14.9958px;line-height:0;font-family:sans-serif;-inkscape-font-specification:'sans-serif, Normal';font-variant-ligatures:normal;font-variant-caps:normal;font-variant-numeric:normal;font-variant-east-asian:normal;text-align:center;letter-spacing:0.937236px;text-anchor:middle;stroke-width:0.499859"
           id="tspan2" /></textPath></text>
    <text
       xml:space="preserve"
       style="font-style:normal;font-variant:normal;font-weight:normal;font-stretch:normal;font-size:14.9958px;line-height:0;font-family:sans-serif;-inkscape-font-specification:'sans-serif, Normal';font-variant-ligatures:normal;font-variant-caps:normal;font-variant-numeric:normal;font-variant-east-asian:normal;text-align:center;letter-spacing:1.5875011px;writing-mode:lr-tb;direction:ltr;text-anchor:middle;fill:#000000;stroke:#000000;stroke-width:0.499859"
       id="text16"
       transform="matrix(1,0,0,0.99999862,-1.1213804e-6,5.9779461e-4)"><textPath
         xlink:href="#path17"
         startOffset="50%"
         id="textPath18"><tspan
           style="font-style:normal;font-variant:normal;font-weight:normal;font-stretch:normal;font-size:14.9958px;line-height:0;font-family:sans-serif;-inkscape-font-specification:'sans-serif, Normal';font-variant-ligatures:normal;font-variant-caps:normal;font-variant-numeric:normal;font-variant-east-asian:normal;text-align:center;text-anchor:middle;stroke-width:0.499859;letter-spacing:1.5875011px"
           id="tspan16">Technical Solutions</tspan></textPath></text>
    <path
       id="path27"
       style="fill:none;stroke:#141414;stroke-width:3;stroke-dasharray:none;stroke-opacity:1"
       d="M 341.45257 383.92958 A 85.052773 56.054031 0 0 1 421.98291 345.91039 A 85.052773 56.054031 0 0 1 502.53125 383.96451 " />
    <path
       id="path30"
       style="fill:none;stroke:#141414;stroke-width:3;stroke-dasharray:none;stroke-opacity:1"
       d="M 506.44634 408.55173 A 85.052773 56.054031 0 0 1 421.98291 458.01845 A 85.052773 56.054031 0 0 1 337.51948 408.55173 " />
    <ellipse
       style="fill:none;stroke:#141414;stroke-width:3;stroke-dasharray:none;stroke-opacity:1"
       id="ellipse18"
       cx="422.18228"
       cy="401.87088"
       rx="56.627563"
       ry="37.625801" />
    <path
       id="path24"
       style="fill:none;stroke:#141414;stroke-width:3;stroke-dasharray:none;stroke-opacity:1;stroke-linecap:round"
       d="M 478.60282 369.6801 A 73.546822 45.670612 0 0 1 493.09767 383.9671 " />
    <path
       id="path21"
       style="fill:none;stroke:#141414;stroke-width:3;stroke-dasharray:none;stroke-opacity:1;stroke-linecap:round"
       d="M 356.29355 383.96733 A 73.546822 45.670612 0 0 1 370.85588 369.63511 " />
    <path
       id="rect22"
       style="opacity:0.226744;fill:none;stroke:#141414;stroke-width:3;stroke-linecap:round"
       d="M 366.56765 408.54821 L 324.8839 408.54821 L 331.432 396.25822 L 324.8839 383.96822 L 324.8839 383.96822 L 372.46549 383.96821 " />
    <path
       id="path23"
       style="opacity:1;fill:none;stroke:#141414;stroke-width:3;stroke-linecap:round"
       d="M 471.97572 383.96822 L 518.52068 383.96822 C 518.52068 383.96822 511.58387 395.52866 511.97258 396.25822 L 518.52068 408.54821 L 477.79653 408.5482 " />
    <path
       id="path25"
       style="opacity:0.226744;fill:none;stroke:#141414;stroke-width:3;stroke-linecap:round"
       d="M 366.56765 408.54821 L 324.8839 408.54821 L 331.432 396.25822 L 324.8839 383.96822 L 324.8839 383.96822 L 372.46549 383.96821 " />
    <path
       id="path28"
       style="opacity:1;fill:none;stroke:#000000;stroke-width:3;stroke-linecap:round;stroke-opacity:0"
       d="M 471.97572 383.96822 L 518.52068 383.96822 C 518.52068 383.96822 511.58387 395.52866 511.97258 396.25822 L 518.52068 408.54821 L 477.79653 408.5482 " />
    <path
       id="path29"
       style="opacity:0;fill:#000000;stroke:#000000;stroke-width:3;stroke-linecap:round;fill-opacity:1;stroke-opacity:1"
       d="M 471.97572 383.96822 L 518.52068 383.96822 C 518.52068 383.96822 511.58387 395.52866 511.97258 396.25822 L 518.52068 408.54821 L 477.79653 408.5482 " />
    <path
       id="path32"
       style="opacity:1;fill:none;stroke:#141414;stroke-width:3;stroke-linecap:round"
       d="M 366.56765 408.54821 L 324.8839 408.54821 L 331.432 396.25822 L 324.8839 383.96822 L 324.8839 383.96822 L 372.46549 383.96821 " />
    <text
       xml:space="preserve"
       style="font-style:normal;font-variant:normal;font-weight:normal;font-stretch:normal;font-size:12.7px;line-height:0;font-family:sans-serif;-inkscape-font-specification:'sans-serif, Normal';font-variant-ligatures:normal;font-variant-caps:normal;font-variant-numeric:normal;font-variant-east-asian:normal;text-align:center;letter-spacing:1.5875px;writing-mode:lr-tb;direction:ltr;text-anchor:middle;opacity:0.226744;fill:#ffffff;stroke:#141414;stroke-width:3;stroke-linecap:round;stroke-dasharray:none;stroke-opacity:1"
       x="499.52673"
       y="350.04291"
       id="text34"><tspan
         sodipodi:role="line"
         id="tspan34"
         style="stroke-width:3"
         x="499.52673"
         y="350.04291" /></text>
    <path
       id="text52"
       style="font-size:60.8778px;line-height:0;-inkscape-font-specification:'sans-serif, Normal';text-align:center;letter-spacing:7.60972px;text-anchor:middle;opacity:1;fill:#000000;stroke:#141414;stroke-width:2.00001;stroke-linecap:round"
       transform="scale(0.94996711,1.052668)"
       d="m 428.55562,404.48117 h -17.47859 v -4.51827 h 5.79647 v -35.22471 h -5.79647 v -4.51827 h 17.47859 v 4.51827 h -5.79647 v 35.22471 h 5.79647 z m 50.6225,-39.17819 q 2.70502,2.97255 4.13184,7.28274 1.45655,4.3102 1.45655,9.77969 0,5.46949 -1.48627,9.80941 -1.45655,4.31019 -4.10212,7.19357 -2.73475,3.00227 -6.48016,4.51827 -3.71568,1.516 -8.50149,1.516 -4.6669,0 -8.50149,-1.54572 -3.80486,-1.54573 -6.48015,-4.48855 -2.6753,-2.94283 -4.13185,-7.2233 -1.42682,-4.28047 -1.42682,-9.77968 0,-5.41004 1.42682,-9.69051 1.42683,-4.3102 4.16157,-7.37192 2.61585,-2.9131 6.48016,-4.45883 3.89404,-1.54572 8.47176,-1.54572 4.75608,0 8.53122,1.57545 3.80486,1.54572 6.45043,4.4291 z m -0.53506,17.06243 q 0,-8.62039 -3.86431,-13.2873 -3.86432,-4.69662 -10.55255,-4.69662 -6.74769,0 -10.612,4.69662 -3.83459,4.66691 -3.83459,13.2873 0,8.70957 3.92377,13.34674 3.92376,4.60745 10.52282,4.60745 6.59906,0 10.4931,-4.60745 3.92376,-4.63717 3.92376,-13.34674 z" />
  </g>
</svg>
